X: 35947
T: Sarah Armstrong's Tune
R: reel
M: 4/4
K: Dmajor
"D"A,2DA,B,2DB,|A,B,DE FED2|"A"E2AEF2AF|EFAB cBA2|
"D"A,2DA,B,2DB,|A,B,DE FED2|"A"E3F EFAB|AFED "D"D4:|
"D"d3c dBAF|"A"E3F EFAF|"G"AB2A B2B2|"A"ABcAd2c2|
"D"d3c dBAF|"A"E3F EFAF|"G"AB2A B2B2|"A"AFED "D"D4:|

